public/assets/img/material-icons/ballot.svg

<svg height="24" viewBox="0 0 24 24" width="24" xmlns="http://www.w3.org/2000/svg"><path d="m13 9.5h5v-2h-5zm0 7h5v-2h-5zm6 4.5h-14c-1.1 0-2-.9-2-2v-14c0-1.1.9-2 2-2h14c1.1 0 2 .9 2 2v14c0 1.1-.9 2-2 2zm-13-10h5v-5h-5zm1-4h3v3h-3zm-1 11h5v-5h-5zm1-4h3v3h-3z" fill-rule="evenodd"/></svg>

<svg xmlns="http://www.w3.org/2000/svg" width="24" height="24" viewBox="0 0 24 24"><path fill-rule="evenodd" d="M13 9.5h5v-2h-5v2zm0 7h5v-2h-5v2zm6 4.5H5c-1.1 0-2-.9-2-2V5c0-1.1.9-2 2-2h14c1.1 0 2 .9 2 2v14c0 1.1-.9 2-2 2zM6 11h5V6H6v5zm1-4h3v3H7V7zM6 18h5v-5H6v5zm1-4h3v3H7v-3z"/></svg>
